report_00007_2020-12-11T15:55:29.892Z/network-rtt/comparison/line/1_vs_2.svg

<svg width="640" height="500" xmlns="http://www.w3.org/2000/svg" xmlns:xlink="http://www.w3.org/1999/xlink"><path fill="#fff" d="M0 0h640v500H0z"/><defs><path id="d" stroke-width=".222" stroke="currentColor" d="M-1-1h2v2h-2z"/><path id="b" stroke-width=".222" stroke="currentColor" d="M0-1.33l-1.33 2h2.66z"/><path id="f" stroke-width=".222" stroke="currentColor" d="M0 1.33L1.265.411.782-1.067l-1.564-.009-.483 1.487z"/><use xlink:href="#b" id="c" stroke="currentColor" transform="rotate(180)"/><use xlink:href="#d" id="e" stroke="currentColor" transform="rotate(45)"/><circle id="a" stroke-width=".222" stroke="currentColor" cx="0" cy="0" r="1"/></defs><g fill="none" color="#000" stroke="currentColor"><path stroke="#000" d="M37.3 445.2h9m568.7 0h-9"/><text transform="translate(29 449.1)" stroke="none" fill="#000" font-family="Arial" font-size="12" text-anchor="end"><tspan>0</tspan></text></g><g fill="none" color="#000" stroke="currentColor"><path stroke="#000" d="M37.3 368h9m568.7 0h-9"/><text transform="translate(29 371.9)" stroke="none" fill="#000" font-family="Arial" font-size="12" text-anchor="end"><tspan>1</tspan></text></g><g fill="none" color="#000" stroke="currentColor"><path stroke="#000" d="M37.3 290.8h9m568.7 0h-9"/><text transform="translate(29 294.7)" stroke="none" fill="#000" font-family="Arial" font-size="12" text-anchor="end"><tspan>2</tspan></text></g><g fill="none" color="#000" stroke="currentColor"><path stroke="#000" d="M37.3 213.5h9m568.7 0h-9"/><text transform="translate(29 217.4)" stroke="none" fill="#000" font-family="Arial" font-size="12" text-anchor="end"><tspan>3</tspan></text></g><g fill="none" color="#000" stroke="currentColor"><path stroke="#000" d="M37.3 136.3h9m568.7 0h-9"/><text transform="translate(29 140.2)" stroke="none" fill="#000" font-family="Arial" font-size="12" text-anchor="end"><tspan>4</tspan></text></g><g fill="none" color="#000" stroke="currentColor"><path stroke="#000" d="M37.3 59.1h9m568.7 0h-9"/><text transform="translate(29 63)" stroke="none" fill="#000" font-family="Arial" font-size="12" text-anchor="end"><tspan>5</tspan></text></g><g fill="none" color="#000" stroke="currentColor"><path stroke="#000" d="M37.3 446v-9m0-418.9v9"/><text transform="translate(37.3 467.9)" stroke="none" fill="#000" font-family="Arial" font-size="12" text-anchor="middle"><tspan>0</tspan></text></g><g fill="none" color="#000" stroke="currentColor"><path stroke="#000" d="M95.7 446v-9m0-418.9v9"/><text transform="translate(95.7 467.9)" stroke="none" fill="#000" font-family="Arial" font-size="12" text-anchor="middle"><tspan>10</tspan></text></g><g fill="none" color="#000" stroke="currentColor"><path stroke="#000" d="M154 446v-9m0-418.9v9"/><text transform="translate(154 467.9)" stroke="none" fill="#000" font-family="Arial" font-size="12" text-anchor="middle"><tspan>20</tspan></text></g><g fill="none" color="#000" stroke="currentColor"><path stroke="#000" d="M212.4 446v-9m0-418.9v9"/><text transform="translate(212.4 467.9)" stroke="none" fill="#000" font-family="Arial" font-size="12" text-anchor="middle"><tspan>30</tspan></text></g><g fill="none" color="#000" stroke="currentColor"><path stroke="#000" d="M270.7 446v-9m0-418.9v9"/><text transform="translate(270.7 467.9)" stroke="none" fill="#000" font-family="Arial" font-size="12" text-anchor="middle"><tspan>40</tspan></text></g><g fill="none" color="#000" stroke="currentColor"><path stroke="#000" d="M329.1 446v-9m0-418.9v9"/><text transform="translate(329.1 467.9)" stroke="none" fill="#000" font-family="Arial" font-size="12" text-anchor="middle"><tspan>50</tspan></text></g><g fill="none" color="#000" stroke="currentColor"><path stroke="#000" d="M387.4 446v-9m0-418.9v9"/><text transform="translate(387.4 467.9)" stroke="none" fill="#000" font-family="Arial" font-size="12" text-anchor="middle"><tspan>60</tspan></text></g><g fill="none" color="#000" stroke="currentColor"><path stroke="#000" d="M445.8 446v-9m0-418.9v9"/><text transform="translate(445.8 467.9)" stroke="none" fill="#000" font-family="Arial" font-size="12" text-anchor="middle"><tspan>70</tspan></text></g><g fill="none" color="#000" stroke="currentColor"><path stroke="#000" d="M504.1 446v-9m0-418.9v9"/><text transform="translate(504.1 467.9)" stroke="none" fill="#000" font-family="Arial" font-size="12" text-anchor="middle"><tspan>80</tspan></text></g><g fill="none" color="#000" stroke="currentColor"><path stroke="#000" d="M562.5 446v-9m0-418.9v9"/><text transform="translate(562.5 467.9)" stroke="none" fill="#000" font-family="Arial" font-size="12" text-anchor="middle"><tspan>90</tspan></text></g><path stroke="#000" d="M37.3 18.1V446H615V18.1H37.3z" fill="none" color="#000"/><text transform="translate(267.3 485.9)" stroke="none" fill="#000" font-family="Arial" font-size="12" text-anchor="end" color="#000"><tspan>pages</tspan></text><path stroke="#9400D3" d="M275.6 482h42.2M37.3 230.6l5.8-171 5.9-27 5.8 276.3 5.8-114.4 5.9-75.3 5.8-6.3 5.8 81.5 5.9-89.1 5.8 19.3 5.9 24.3 5.8 55.1 5.8-73.9 5.9 73.9 5.8-101.8 5.8 234.9 5.9-274.8 5.8 42.3 5.8 133.1 5.9-20.1L154 61.5l5.8 88.6h5.9l5.8 135.1 5.8-171.4 5.9 89 5.8-64.9 5.9 195.9 5.8-157.8 5.8-114.7 5.9 70.1 5.8 7.7 5.8 24.6 5.9-25.6 5.8 171.8 5.8-162.9 5.9-37.3 5.8-7.2 5.8 208.3 5.9-189 5.8 54.1 5.8-36.2 5.9-65.9 5.8 261.3 5.9-219.3 5.8 201.8 5.8-155.9 5.9-74 5.8 17.6 5.8 205.6 5.9 20.8 5.8 3.8 5.8-90.2 5.9 93.1 5.8-181.4 5.8 46.3 5.9-160.9 5.8 110.7 5.9-58.5 5.8 185.8 5.8-34.8 5.9-67.4 5.8 1.6 5.8 6.6 5.9 58.9 5.8-57.8 5.8-14.3 5.9 40.3 5.8 11.1 5.8-26 5.9-54.7 5.8 36.8 5.8 122.1 5.9-110.4 5.8-65.3 5.9 99.3 5.8-112.3 5.8 93.5 5.9-50.7 5.8 95.6 5.8 68.7 5.9-164.3 5.8 27.1 5.8-17.3 5.9-39.3 5.8 189.3 5.8-257.1 5.9-33.3 5.8 138.7 5.8 161.8 5.9-152.2 5.8 153.8 5.9-164.1 5.8 24.6 5.8 37.2 5.9 78.7 5.8-118.8 5.8-8.1 5.9-31.4 5.8 180.3" fill="none" color="#000"/><text transform="translate(425.7 485.9)" stroke="none" fill="#000" font-family="Arial" font-size="12" text-anchor="end" color="#000"><tspan>pages+cached</tspan></text><path stroke="#009E73" d="M434 482h42.2M37.3 75.8l5.8 359L49 224.9l5.8 207.9 5.8-7.9 5.9 12.6 5.8-10.5 5.8-11 5.9 10.7 5.8-.3 5.9-7.8 5.8-11.2 5.8 12.6 5.9 3.7 5.8-3.7 5.8 3.7 5.9 7.1 5.8 5.2 5.8 1.8 5.9-18.9 5.8 5.7 5.8-6.3 5.9 7.3 5.8-9 5.8.4 5.9 17.5 5.8-8.3 5.9-9.8 5.8 8.5 5.8-3.1 5.9-1.8 5.8 12.1 5.8.4 5.9-7 5.8-3.2 5.8 9.2 5.9-.7 5.8-7.6 5.8-7.2 5.9-1.1 5.8-.6 5.8 4.7 5.9-3.4 5.8 12.5 5.9-13.5 5.8 7.8 5.8-5.2 5.9 12.1 5.8-13 5.8 4.6 5.9-5.3 5.8 1.1 5.8 7.1 5.9 8.6 5.8-18.6 5.8 15.6 5.9-.1 5.8-13.4 5.9 1.9 5.8 18.1 5.8-14.9 5.9 2.1 5.8-2.1 5.8 1.7 5.9-7.2 5.8 18.5 5.8-10 5.9.6 5.8 4.3 5.8 3.7 5.9 4.6 5.8-8.8 5.8-9.6 5.9-1 5.8 16.5 5.9-16.6 5.8.2 5.8-4.6 5.9 4.8 5.8 2.7 5.8-5.4 5.9.2 5.8 18.4 5.8-.6 5.9.5 5.8-16.7 5.8-2.3 5.9 7.3 5.8-.7 5.8-8.3 5.9 10 5.8 9.7 5.9-18.6 5.8 9.2 5.8-9.1 5.9 2.9 5.8 1.5 5.8-4.3 5.9 22.3 5.8-18" fill="none" color="#000"/><g fill="none" color="#000" stroke="currentColor"><path stroke="#000" d="M37.3 18.1V446H615V18.1H37.3z"/></g></svg>

<?xml version="1.0" encoding="utf-8"  standalone="no"?>
<svg 
 width="640" height="500"
 viewBox="0 0 640 500"
 xmlns="http://www.w3.org/2000/svg"
 xmlns:xlink="http://www.w3.org/1999/xlink"
>

<title>Gnuplot</title>
<desc>Produced by GNUPLOT 5.4 patchlevel 0 </desc>

<g id="gnuplot_canvas">

<rect x="0" y="0" width="640" height="500" fill="#ffffff"/>
<defs>

	<circle id='gpDot' r='0.5' stroke-width='0.5' stroke='currentColor'/>
	<path id='gpPt0' stroke-width='0.222' stroke='currentColor' d='M-1,0 h2 M0,-1 v2'/>
	<path id='gpPt1' stroke-width='0.222' stroke='currentColor' d='M-1,-1 L1,1 M1,-1 L-1,1'/>
	<path id='gpPt2' stroke-width='0.222' stroke='currentColor' d='M-1,0 L1,0 M0,-1 L0,1 M-1,-1 L1,1 M-1,1 L1,-1'/>
	<rect id='gpPt3' stroke-width='0.222' stroke='currentColor' x='-1' y='-1' width='2' height='2'/>
	<rect id='gpPt4' stroke-width='0.222' stroke='currentColor' fill='currentColor' x='-1' y='-1' width='2' height='2'/>
	<circle id='gpPt5' stroke-width='0.222' stroke='currentColor' cx='0' cy='0' r='1'/>
	<use xlink:href='#gpPt5' id='gpPt6' fill='currentColor' stroke='none'/>
	<path id='gpPt7' stroke-width='0.222' stroke='currentColor' d='M0,-1.33 L-1.33,0.67 L1.33,0.67 z'/>
	<use xlink:href='#gpPt7' id='gpPt8' fill='currentColor' stroke='none'/>
	<use xlink:href='#gpPt7' id='gpPt9' stroke='currentColor' transform='rotate(180)'/>
	<use xlink:href='#gpPt9' id='gpPt10' fill='currentColor' stroke='none'/>
	<use xlink:href='#gpPt3' id='gpPt11' stroke='currentColor' transform='rotate(45)'/>
	<use xlink:href='#gpPt11' id='gpPt12' fill='currentColor' stroke='none'/>
	<path id='gpPt13' stroke-width='0.222' stroke='currentColor' d='M0,1.330 L1.265,0.411 L0.782,-1.067 L-0.782,-1.076 L-1.265,0.411 z'/>
	<use xlink:href='#gpPt13' id='gpPt14' fill='currentColor' stroke='none'/>
	<filter id='textbox' filterUnits='objectBoundingBox' x='0' y='0' height='1' width='1'>
	  <feFlood flood-color='#FFFFFF' flood-opacity='1' result='bgnd'/>
	  <feComposite in='SourceGraphic' in2='bgnd' operator='atop'/>
	</filter>
	<filter id='greybox' filterUnits='objectBoundingBox' x='0' y='0' height='1' width='1'>
	  <feFlood flood-color='lightgrey' flood-opacity='1' result='grey'/>
	  <feComposite in='SourceGraphic' in2='grey' operator='atop'/>
	</filter>
</defs>
<g fill="none" color="#FFFFFF" stroke="black" stroke-width="1.00" stroke-linecap="butt" stroke-linejoin="miter">
</g>
<g fill="none" color="black" stroke="currentColor" stroke-width="1.00" stroke-linecap="butt" stroke-linejoin="miter">
	<path stroke='black'  d='M37.3,445.2 L46.3,445.2 M615.0,445.2 L606.0,445.2  '/>	<g transform="translate(29.0,449.1)" stroke="none" fill="black" font-family="Arial" font-size="12.00"  text-anchor="end">
		<text><tspan font-family="Arial" > 0</tspan></text>
	</g>
</g>
<g fill="none" color="black" stroke="currentColor" stroke-width="1.00" stroke-linecap="butt" stroke-linejoin="miter">
	<path stroke='black'  d='M37.3,368.0 L46.3,368.0 M615.0,368.0 L606.0,368.0  '/>	<g transform="translate(29.0,371.9)" stroke="none" fill="black" font-family="Arial" font-size="12.00"  text-anchor="end">
		<text><tspan font-family="Arial" > 1</tspan></text>
	</g>
</g>
<g fill="none" color="black" stroke="currentColor" stroke-width="1.00" stroke-linecap="butt" stroke-linejoin="miter">
	<path stroke='black'  d='M37.3,290.8 L46.3,290.8 M615.0,290.8 L606.0,290.8  '/>	<g transform="translate(29.0,294.7)" stroke="none" fill="black" font-family="Arial" font-size="12.00"  text-anchor="end">
		<text><tspan font-family="Arial" > 2</tspan></text>
	</g>
</g>
<g fill="none" color="black" stroke="currentColor" stroke-width="1.00" stroke-linecap="butt" stroke-linejoin="miter">
	<path stroke='black'  d='M37.3,213.5 L46.3,213.5 M615.0,213.5 L606.0,213.5  '/>	<g transform="translate(29.0,217.4)" stroke="none" fill="black" font-family="Arial" font-size="12.00"  text-anchor="end">
		<text><tspan font-family="Arial" > 3</tspan></text>
	</g>
</g>
<g fill="none" color="black" stroke="currentColor" stroke-width="1.00" stroke-linecap="butt" stroke-linejoin="miter">
	<path stroke='black'  d='M37.3,136.3 L46.3,136.3 M615.0,136.3 L606.0,136.3  '/>	<g transform="translate(29.0,140.2)" stroke="none" fill="black" font-family="Arial" font-size="12.00"  text-anchor="end">
		<text><tspan font-family="Arial" > 4</tspan></text>
	</g>
</g>
<g fill="none" color="black" stroke="currentColor" stroke-width="1.00" stroke-linecap="butt" stroke-linejoin="miter">
	<path stroke='black'  d='M37.3,59.1 L46.3,59.1 M615.0,59.1 L606.0,59.1  '/>	<g transform="translate(29.0,63.0)" stroke="none" fill="black" font-family="Arial" font-size="12.00"  text-anchor="end">
		<text><tspan font-family="Arial" > 5</tspan></text>
	</g>
</g>
<g fill="none" color="black" stroke="currentColor" stroke-width="1.00" stroke-linecap="butt" stroke-linejoin="miter">
	<path stroke='black'  d='M37.3,446.0 L37.3,437.0 M37.3,18.1 L37.3,27.1  '/>	<g transform="translate(37.3,467.9)" stroke="none" fill="black" font-family="Arial" font-size="12.00"  text-anchor="middle">
		<text><tspan font-family="Arial" > 0</tspan></text>
	</g>
</g>
<g fill="none" color="black" stroke="currentColor" stroke-width="1.00" stroke-linecap="butt" stroke-linejoin="miter">
	<path stroke='black'  d='M95.7,446.0 L95.7,437.0 M95.7,18.1 L95.7,27.1  '/>	<g transform="translate(95.7,467.9)" stroke="none" fill="black" font-family="Arial" font-size="12.00"  text-anchor="middle">
		<text><tspan font-family="Arial" > 10</tspan></text>
	</g>
</g>
<g fill="none" color="black" stroke="currentColor" stroke-width="1.00" stroke-linecap="butt" stroke-linejoin="miter">
	<path stroke='black'  d='M154.0,446.0 L154.0,437.0 M154.0,18.1 L154.0,27.1  '/>	<g transform="translate(154.0,467.9)" stroke="none" fill="black" font-family="Arial" font-size="12.00"  text-anchor="middle">
		<text><tspan font-family="Arial" > 20</tspan></text>
	</g>
</g>
<g fill="none" color="black" stroke="currentColor" stroke-width="1.00" stroke-linecap="butt" stroke-linejoin="miter">
	<path stroke='black'  d='M212.4,446.0 L212.4,437.0 M212.4,18.1 L212.4,27.1  '/>	<g transform="translate(212.4,467.9)" stroke="none" fill="black" font-family="Arial" font-size="12.00"  text-anchor="middle">
		<text><tspan font-family="Arial" > 30</tspan></text>
	</g>
</g>
<g fill="none" color="black" stroke="currentColor" stroke-width="1.00" stroke-linecap="butt" stroke-linejoin="miter">
	<path stroke='black'  d='M270.7,446.0 L270.7,437.0 M270.7,18.1 L270.7,27.1  '/>	<g transform="translate(270.7,467.9)" stroke="none" fill="black" font-family="Arial" font-size="12.00"  text-anchor="middle">
		<text><tspan font-family="Arial" > 40</tspan></text>
	</g>
</g>
<g fill="none" color="black" stroke="currentColor" stroke-width="1.00" stroke-linecap="butt" stroke-linejoin="miter">
	<path stroke='black'  d='M329.1,446.0 L329.1,437.0 M329.1,18.1 L329.1,27.1  '/>	<g transform="translate(329.1,467.9)" stroke="none" fill="black" font-family="Arial" font-size="12.00"  text-anchor="middle">
		<text><tspan font-family="Arial" > 50</tspan></text>
	</g>
</g>
<g fill="none" color="black" stroke="currentColor" stroke-width="1.00" stroke-linecap="butt" stroke-linejoin="miter">
	<path stroke='black'  d='M387.4,446.0 L387.4,437.0 M387.4,18.1 L387.4,27.1  '/>	<g transform="translate(387.4,467.9)" stroke="none" fill="black" font-family="Arial" font-size="12.00"  text-anchor="middle">
		<text><tspan font-family="Arial" > 60</tspan></text>
	</g>
</g>
<g fill="none" color="black" stroke="currentColor" stroke-width="1.00" stroke-linecap="butt" stroke-linejoin="miter">
	<path stroke='black'  d='M445.8,446.0 L445.8,437.0 M445.8,18.1 L445.8,27.1  '/>	<g transform="translate(445.8,467.9)" stroke="none" fill="black" font-family="Arial" font-size="12.00"  text-anchor="middle">
		<text><tspan font-family="Arial" > 70</tspan></text>
	</g>
</g>
<g fill="none" color="black" stroke="currentColor" stroke-width="1.00" stroke-linecap="butt" stroke-linejoin="miter">
	<path stroke='black'  d='M504.1,446.0 L504.1,437.0 M504.1,18.1 L504.1,27.1  '/>	<g transform="translate(504.1,467.9)" stroke="none" fill="black" font-family="Arial" font-size="12.00"  text-anchor="middle">
		<text><tspan font-family="Arial" > 80</tspan></text>
	</g>
</g>
<g fill="none" color="black" stroke="currentColor" stroke-width="1.00" stroke-linecap="butt" stroke-linejoin="miter">
	<path stroke='black'  d='M562.5,446.0 L562.5,437.0 M562.5,18.1 L562.5,27.1  '/>	<g transform="translate(562.5,467.9)" stroke="none" fill="black" font-family="Arial" font-size="12.00"  text-anchor="middle">
		<text><tspan font-family="Arial" > 90</tspan></text>
	</g>
</g>
<g fill="none" color="black" stroke="currentColor" stroke-width="1.00" stroke-linecap="butt" stroke-linejoin="miter">
</g>
<g fill="none" color="black" stroke="currentColor" stroke-width="1.00" stroke-linecap="butt" stroke-linejoin="miter">
	<path stroke='black'  d='M37.3,18.1 L37.3,446.0 L615.0,446.0 L615.0,18.1 L37.3,18.1 Z  '/></g>
<g fill="none" color="black" stroke="currentColor" stroke-width="1.00" stroke-linecap="butt" stroke-linejoin="miter">
</g>
	<g id="gnuplot_plot_1" ><title>pages</title>
<g fill="none" color="black" stroke="currentColor" stroke-width="1.00" stroke-linecap="butt" stroke-linejoin="miter">
	<g transform="translate(267.3,485.9)" stroke="none" fill="black" font-family="Arial" font-size="12.00"  text-anchor="end">
		<text><tspan font-family="Arial" >pages</tspan></text>
	</g>
</g>
<g fill="none" color="black" stroke="currentColor" stroke-width="1.00" stroke-linecap="butt" stroke-linejoin="miter">
	<path stroke='rgb(148,   0, 211)'  d='M275.6,482.0 L317.8,482.0 M37.3,230.6 L43.1,59.6 L49.0,32.6 L54.8,308.9 L60.6,194.5 L66.5,119.2
		L72.3,112.9 L78.1,194.4 L84.0,105.3 L89.8,124.6 L95.7,148.9 L101.5,204.0 L107.3,130.1 L113.2,204.0
		L119.0,102.2 L124.8,337.1 L130.7,62.3 L136.5,104.6 L142.3,237.7 L148.2,217.6 L154.0,61.5 L159.8,150.1
		L165.7,150.1 L171.5,285.2 L177.3,113.8 L183.2,202.8 L189.0,137.9 L194.9,333.8 L200.7,176.0 L206.5,61.3
		L212.4,131.4 L218.2,139.1 L224.0,163.7 L229.9,138.1 L235.7,309.9 L241.5,147.0 L247.4,109.7 L253.2,102.5
		L259.0,310.8 L264.9,121.8 L270.7,175.9 L276.5,139.7 L282.4,73.8 L288.2,335.1 L294.1,115.8 L299.9,317.6
		L305.7,161.7 L311.6,87.7 L317.4,105.3 L323.2,310.9 L329.1,331.7 L334.9,335.5 L340.7,245.3 L346.6,338.4
		L352.4,157.0 L358.2,203.3 L364.1,42.4 L369.9,153.1 L375.8,94.6 L381.6,280.4 L387.4,245.6 L393.3,178.2
		L399.1,179.8 L404.9,186.4 L410.8,245.3 L416.6,187.5 L422.4,173.2 L428.3,213.5 L434.1,224.6 L439.9,198.6
		L445.8,143.9 L451.6,180.7 L457.4,302.8 L463.3,192.4 L469.1,127.1 L475.0,226.4 L480.8,114.1 L486.6,207.6
		L492.5,156.9 L498.3,252.5 L504.1,321.2 L510.0,156.9 L515.8,184.0 L521.6,166.7 L527.5,127.4 L533.3,316.7
		L539.1,59.6 L545.0,26.3 L550.8,165.0 L556.6,326.8 L562.5,174.6 L568.3,328.4 L574.2,164.3 L580.0,188.9
		L585.8,226.1 L591.7,304.8 L597.5,186.0 L603.3,177.9 L609.2,146.5 L615.0,326.8  '/></g>
	</g>
	<g id="gnuplot_plot_2" ><title>pages+cached</title>
<g fill="none" color="black" stroke="currentColor" stroke-width="1.00" stroke-linecap="butt" stroke-linejoin="miter">
	<g transform="translate(425.7,485.9)" stroke="none" fill="black" font-family="Arial" font-size="12.00"  text-anchor="end">
		<text><tspan font-family="Arial" >pages+cached</tspan></text>
	</g>
</g>
<g fill="none" color="black" stroke="currentColor" stroke-width="1.00" stroke-linecap="butt" stroke-linejoin="miter">
	<path stroke='rgb(  0, 158, 115)'  d='M434.0,482.0 L476.2,482.0 M37.3,75.8 L43.1,434.8 L49.0,224.9 L54.8,432.8 L60.6,424.9 L66.5,437.5
		L72.3,427.0 L78.1,416.0 L84.0,426.7 L89.8,426.4 L95.7,418.6 L101.5,407.4 L107.3,420.0 L113.2,423.7
		L119.0,420.0 L124.8,423.7 L130.7,430.8 L136.5,436.0 L142.3,437.8 L148.2,418.9 L154.0,424.6 L159.8,418.3
		L165.7,425.6 L171.5,416.6 L177.3,417.0 L183.2,434.5 L189.0,426.2 L194.9,416.4 L200.7,424.9 L206.5,421.8
		L212.4,420.0 L218.2,432.1 L224.0,432.5 L229.9,425.5 L235.7,422.3 L241.5,431.5 L247.4,430.8 L253.2,423.2
		L259.0,416.0 L264.9,414.9 L270.7,414.3 L276.5,419.0 L282.4,415.6 L288.2,428.1 L294.1,414.6 L299.9,422.4
		L305.7,417.2 L311.6,429.3 L317.4,416.3 L323.2,420.9 L329.1,415.6 L334.9,416.7 L340.7,423.8 L346.6,432.4
		L352.4,413.8 L358.2,429.4 L364.1,429.3 L369.9,415.9 L375.8,417.8 L381.6,435.9 L387.4,421.0 L393.3,423.1
		L399.1,421.0 L404.9,422.7 L410.8,415.5 L416.6,434.0 L422.4,424.0 L428.3,424.6 L434.1,428.9 L439.9,432.6
		L445.8,437.2 L451.6,428.4 L457.4,418.8 L463.3,417.8 L469.1,434.3 L475.0,417.7 L480.8,417.9 L486.6,413.3
		L492.5,418.1 L498.3,420.8 L504.1,415.4 L510.0,415.6 L515.8,434.0 L521.6,433.4 L527.5,433.9 L533.3,417.2
		L539.1,414.9 L545.0,422.2 L550.8,421.5 L556.6,413.2 L562.5,423.2 L568.3,432.9 L574.2,414.3 L580.0,423.5
		L585.8,414.4 L591.7,417.3 L597.5,418.8 L603.3,414.5 L609.2,436.8 L615.0,418.8  '/></g>
	</g>
<g fill="none" color="#FFFFFF" stroke="rgb(  0, 158, 115)" stroke-width="2.00" stroke-linecap="butt" stroke-linejoin="miter">
</g>
<g fill="none" color="black" stroke="currentColor" stroke-width="2.00" stroke-linecap="butt" stroke-linejoin="miter">
</g>
<g fill="none" color="black" stroke="black" stroke-width="1.00" stroke-linecap="butt" stroke-linejoin="miter">
</g>
<g fill="none" color="black" stroke="currentColor" stroke-width="1.00" stroke-linecap="butt" stroke-linejoin="miter">
	<path stroke='black'  d='M37.3,18.1 L37.3,446.0 L615.0,446.0 L615.0,18.1 L37.3,18.1 Z  '/></g>
<g fill="none" color="black" stroke="currentColor" stroke-width="1.00" stroke-linecap="butt" stroke-linejoin="miter">
</g>
</g>
</svg>
